X: 1
T:Sword of St. Columba, The
M:2/4
L:1/8
Z:Ted Hastings <ted@HASTINGS.NU> irtrad-l 2001-4--4
D:"Sord Colmcille" [sic] on an old Gallowglass Ceili Band LP
R:polka
K:D
DF AB/c/|dd c/B/A|A,C E>F|GG F/G/F/E/|!
DF AB/c/|dd c/B/A|A,>C E/G/F/E/|D2 D z:|!
fA fA|ff/g/ f/e/d|eA eA|e(e/f/) e/c/d/e/|!
fA fA|ff/g/ f/e/d|e/d/c/B/ A/G/F/E/|D2 D2:||
